src/images/hackathon/code.svg

<svg fill="none" height="24" viewBox="0 0 24 24" width="24" xmlns="http://www.w3.org/2000/svg"><g fill="#545454"><path d="m12.0938 15.7731c0 .1032.0796.1875.1757.1875h4.336c.0961 0 .1757-.0843.1757-.1875v-1.125c0-.1031-.0796-.1875-.1757-.1875h-4.336c-.0961 0-.1757.0844-.1757.1875zm-4.56802.143 4.50002-3.7734c.089-.075.089-.2133 0-.2883l-4.50002-3.77111c-.12187-.10312-.30703-.0164-.30703.14297v1.46953c0 .05625.02344.10782.06797.14297l2.57344 2.16094-2.57344 2.1609c-.04219.0352-.06797.0891-.06797.143v1.4695c0 .1594.18516.2461.30703.143z"/><path d="m20.625 2.625h-17.25c-.41484 0-.75.33516-.75.75v17.25c0 .4148.33516.75.75.75h17.25c.4148 0 .75-.3352.75-.75v-17.25c0-.41484-.3352-.75-.75-.75zm-.9375 17.0625h-15.375v-15.375h15.375z"/></g></svg>

<svg width="24" height="24" viewBox="0 0 24 24" fill="none" xmlns="http://www.w3.org/2000/svg">
<path d="M12.0938 15.7731C12.0938 15.8763 12.1734 15.9606 12.2695 15.9606H16.6055C16.7016 15.9606 16.7812 15.8763 16.7812 15.7731V14.6481C16.7812 14.545 16.7016 14.4606 16.6055 14.4606H12.2695C12.1734 14.4606 12.0938 14.545 12.0938 14.6481V15.7731ZM7.52578 15.9161L12.0258 12.1427C12.1148 12.0677 12.1148 11.9294 12.0258 11.8544L7.52578 8.08329C7.40391 7.98017 7.21875 8.06689 7.21875 8.22626V9.69579C7.21875 9.75204 7.24219 9.80361 7.28672 9.83876L9.86016 11.9997L7.28672 14.1606C7.24453 14.1958 7.21875 14.2497 7.21875 14.3036V15.7731C7.21875 15.9325 7.40391 16.0192 7.52578 15.9161Z" fill="#545454"/>
<path d="M20.625 2.625H3.375C2.96016 2.625 2.625 2.96016 2.625 3.375V20.625C2.625 21.0398 2.96016 21.375 3.375 21.375H20.625C21.0398 21.375 21.375 21.0398 21.375 20.625V3.375C21.375 2.96016 21.0398 2.625 20.625 2.625ZM19.6875 19.6875H4.3125V4.3125H19.6875V19.6875Z" fill="#545454"/>
</svg>
